X:1
T:Prince Regent's Favorite, The
T:Prince Regent's Favorite, The
T:John Gow (1764-1826)
C:John Gow (1764-1826)
L:1/8
M:4/4
K:C
V:1 treble 
V:1
 G/F/ | EC CC{B,} A,3{A} G/F/ | EC CC G,3 G/F/ | E/C/(A A/)^F/(G G/)E/(=F F/)^D/E | %4
 .G/(^G/A/=G/) (F/E/)(D/C/) (E3/2F/4E/4) D A/G/ | (G/F/E/D/) C/>D/E/C/ A,A, A, A/G/ | %6
 (G/F/E/D/) C/>D/E/C/ G,G, G, (G/4F/4E/4D/4) | C/e/d C/c/B/ A,/A/G G,/F/E | %8
 (E/c/)(F/c/) (G/c/)(A/c/) (E/G/)F/D/ C || g/f/ | (e/g/)a/g/ .c'/(g/e/).g/ [fa][eg] [eg] (g/f/) | %11
 .e/(g/a/g/) .c'/(g/e/).g/ (g/f/)a/f/{e} d>f | (e/c/)(g/e/) c'>c (A/G/)(f/e/) a>g | %13
 (g/a/b/c'/) (c/d/e/f/) (e2 d) g/>f/ | (f/e/Td/c/) (c/d/e/c/) [CA][CA] [CA] (g/>f/) | %15
 (f/e/Td/c/) (c/d/e/c/) [B,G][B,G] [B,G] e/>d/ | c/c'/b A/a/g F/f/e D/d/c | %17
 G/f/e/a/ g/c'/ (c/4d/4e/4f/4) eTd c g/>f/ | e/>g/Ta/g/ c'/g/Ta/g/ [fa][eg] [eg] g/f/ | %19
 .e/(g/a/g/) c'(g/a/ g/) (g/f/)(a/ f/) d>f | (e/c/)(g/e/) c'>c (A/G/)(f/e/) a/>g/ | %21
 (g/a/)(b/c'/) (c/4d/4e/4f/4 g/4a/4b/4c'/4) (e2 d) g/f/ | %22
 (f/e/)Td/c/ (c/4d/4c/4d/4 f/4e/4d/4c/4) [CA]/[CA]/[CA]/[CA]/ [CA] g/f/ | %23
 (f/e/)Td/c/ (c/4d/4c/4d/4 f/4e/4d/4c/4) [B,G]/[B,G]/[B,G]/[B,G]/ [B,G] g/f/ | %24
 e/c/(g g/)e/(c' c'/)g/(e' e'/)c'/g' (G/4^G/4) | (A/G/)(F/E/) D/C/B,/C/ TEDC || %26

